assets/Roll of paper/Flat/roll_of_paper_flat.svg

<svg width="32" height="32" viewBox="0 0 32 32" fill="none" xmlns="http://www.w3.org/2000/svg">
<path d="M15.0278 14H25.0278V24H15.0278V14Z" fill="#9B9B9B"/>
<path d="M25.0278 24C27.7893 24 30.0278 19.5228 30.0278 14C30.0278 8.47715 27.7893 4 25.0278 4H20.0278V14C20.0278 19.5228 22.2664 24 25.0278 24Z" fill="#F4F4F4"/>
<path d="M7.02783 4H25.0278C22.2664 4 20.0278 8.47715 20.0278 14V28C20.0278 28.5523 19.5801 29 19.0278 29H3.02783C2.47555 29 2.02783 28.5523 2.02783 28V14C2.02783 5 6.52783 4 7.02783 4Z" fill="#D3D3D3"/>
<path d="M27.0278 14C27.0278 16.2091 26.1324 18 25.0278 18C23.9233 18 23.0278 16.2091 23.0278 14C23.0278 11.7909 23.9233 10 25.0278 10C26.1324 10 27.0278 11.7909 27.0278 14Z" fill="#7D4533"/>
</svg>

<svg xmlns="http://www.w3.org/2000/svg" width="32" height="32" fill="none"><path fill="#9B9B9B" d="M15.028 14h10v10h-10V14Z"/><path fill="#F4F4F4" d="M25.028 24c2.761 0 5-4.477 5-10s-2.239-10-5-10h-5v10c0 5.523 2.238 10 5 10Z"/><path fill="#D3D3D3" d="M7.028 4h18c-2.762 0-5 4.477-5 10v14a1 1 0 0 1-1 1h-16a1 1 0 0 1-1-1V14c0-9 4.5-10 5-10Z"/><path fill="#7D4533" d="M27.028 14c0 2.21-.896 4-2 4-1.105 0-2-1.79-2-4s.895-4 2-4c1.104 0 2 1.79 2 4Z"/></svg>
